X:1
T:Title
%%score { ( 1 3 ) | ( 2 4 ) }
L:1/8
M:4/4
K:Eb
V:1 treble nm="Grand Piano"
V:3 treble 
V:2 bass 
V:4 bass 
V:1
 z4 z2[Q:1/4=108] E>F | G2 G2 G2 F>E | B2 B2 B2 [GB]>[GB] | [Ac]2 [Ae]2 [GB]2 [EG]2 | %4
 [EG]2 [DF]4 E>F | G2 G2 B2 G>E |[M:9/8] c2 d- d [Ge]2- [Ge]c>c |[M:4/4] B2 G2 [DG]2 [DF]2 | %8
[M:3/4] E6 |[M:1/4] B>B |[M:4/4] c6 z2 | B6 z2 | B2 F>F B2 A2 | [B,EG]6 z2 | z2 [EA]2 [EA]2 z2 | %15
[M:9/8] z2 [CA]- [CA] [B,G]2- [B,G][G,E]>[=A,EF] |[M:4/4] [B,EG]2 [B,EB]>[CEA] [B,EG]2 [A,DF]2 | %17
[M:3/4] [G,E]6 |] %18
V:2
 z4 z2 [E,G,]>[E,A,E] | [E,B,E]2 [E,B,E]2 [E,B,E]2 [E,A,E]>G, | %2
 [E,G,E]2 [F,A,D]2 [G,B,E]2 [E,E]>[E,E] | [A,E]2 [A,C]2 [E,E]2 [E,B,]2 | %4
 [B,,B,]2 [B,,B,]4 [E,G,]>[E,A,E] | [E,B,E]2 [E,B,E]2 [E,G,E]2 [E,B,E]>[G,B,] | %6
[M:9/8][K:treble] [A,E]2 [G,=B,F]- [G,B,F][K:bass] [C,C]2- [C,C][A,E]>[A,E] | %7
[M:4/4] [G,B,E]2 [E,B,E]2 [B,,B,]2 [B,,A,]2 |[M:3/4] [E,G,]6 |[M:1/4] z2 | %10
[M:4/4] z2 [A,E]2 [A,E]2 z2 | z2 [F,A,]2 [E,G,]2 [E,B,E]>[E,B,E] | %12
 [G,B,E]2 [A,B,D]>[A,B,D] [G,B,E]2 [F,B,D]2 | E,2 B,,2 E,2[K:treble] B>B | c6 z2 | %15
[M:9/8][K:bass] e6- e z z |[M:4/4] B,,2 G,,>A,, B,,2 B,,2 |[M:3/4] E,6 |] %18
V:3
 x8 | x8 | x8 | x8 | x8 | x8 |[M:9/8] x9 |[M:4/4] x8 |[M:3/4] x6 |[M:1/4] x2 |[M:4/4] z2 A2 A2 e2 | %11
 z2 D2 E2 G>G | x8 | x8 | x8 |[M:9/8] x9 |[M:4/4] x8 |[M:3/4] x6 |] %18
V:4
 x8 | x8 | x8 | x8 | x8 | x8 |[M:9/8][K:treble] x4[K:bass] x5 |[M:4/4] x8 |[M:3/4] x6 |[M:1/4] x2 | %10
[M:4/4] x8 | x8 | x8 | x6[K:treble] x2 | z2 A,2 A,2 e2 |[M:9/8][K:bass] z2 E,- E, E,2- E,E,>C, | %16
[M:4/4] x8 |[M:3/4] x6 |] %18

